X:163
T:Clyde Hornpipe, The
C:Jimmy Blair
B:The Jimmy Blair Album
Z:Nigel Gatherer
M:4/4
L:1/8
K:D
A>F|D>FA>F G>Bd>B|A>ce>c d>fa>f|g>ab>g f>ga>f|(3efe (3dcB (3ABA (3GFE|
D>FA>F G>Bd>B|A>ce>c d>fa>f|g>ab>g (3fed (3edc|d2 f2 d2|]
(3ABc|d>AF>A D>FA>F|G>BG>E B,2 (3E^D=D|C>DE>F G>EC>E|D>EF>B A2 (3ABc|
d>AF>A D>FA>F|G>BG>E B,2 (3E^D=D|C>DE>F (3GAB (3cde|d2 d2 d2|]
<end>
<start>
